X:327
T:Scotch Mary
Z: id:dc-reel-305
M:C
L:1/8
K:A Dorian
AB|cEE2 cded|cEEF G2AB|cEE2 cded|cABG A2:|!
cd|eaag eged|cdef g2fg|eaag eged|cABG A2cd|!
eaag eged|cdef g2fg|afge fded|cABG A2|]!

